X:1
T:Title
%%score { ( 1 4 ) | ( 2 3 ) }
L:1/8
Q:1/4=100
M:4/4
K:G
V:1 treble nm="Grand Piano"
V:4 treble 
V:2 bass 
V:3 bass 
V:1
 [B,D]2 B>B [DB]2 _B>=B | [B,G]2 G>E [B,D]2 [Fc]>[Fc] | [GB]2 [FA]>G F2 [Fd]>[Fd] | [Fd]6 z2 | %4
w: O.~F.~Pugh * * * * *||||
 [B,D]2 B>A [B,G]2 G>G | [DG]2 A>G E2 [Ec]>[EB] | [FA]>[EG] F>=F [A,D^F]2 [CDA]>[A,DF] | %7
w: |||
[M:3/4] [B,DG]6 |[M:1/4] [DB]>[^C_B] |[M:4/4] [DB]>[Ec] [DB]>A [B,D]2 [DGB]>[DGB] | %10
w: |||
 [Dc]2- [D-Ac]2 [DF]2 A>G | F>=F ^F>E D2 [Fd]>[Fd] | d6 z2 | d2 B>A G2 F>G | %14
w: ||||
[M:9/8] A2 B- B/B/ [Ec]2- [Ec][Ec]>[CEB] |[M:4/4] [CFA]>[CEG] [A,F]>=F [A,D^F]2 [CDA]>[CDF] | %16
w: ||
 [B,DG]6 z2 |] %17
w: |
V:2
 z2 D>D z2 ^C>D | z2 E>C G,,2 [D,D]>[D,D] | [D,D]2 [D,D]>[D,B,] [D,A,D]2 [D,A,]>[D,A,] | %3
 [D,A,C]6 z2 | z2 D>C z2 B,>B, | z2 D>D [C,C]2 [C,G,]>[C,C] | z2 A,2 z4 |[M:3/4] G,,6 | %8
[M:1/4] G,>G, |[M:4/4] G,>G, z z/ C/ G,2 G,>G, | D,2 F,2 A,2 [D,CD]>[D,B,D] | z2 A,2 z4 | %12
 [G,B,G]2 [G,B,]2 [G,B,]2 z2 | [G,B,G]2 [G,DG]>[A,DF] [B,D]2 [CD]>[B,D] | %14
[M:9/8] [A,DF]2 [G,D=F]- [G,DF]/[G,DF]/[K:bass] [C,C]2- [C,C][C,G,]>C, | %15
[M:4/4] D,>D, z z/ ^G,/ D,2 D,>D, | G,,6 z2 |] %17
V:3
 G,,4 G,,4 | G,,4 z4 | x8 | x8 | G,,4 G,,4 | B,,4 z4 | [D,C]>[D,C] [D,D]->[D,^G,D] D,2 D,>D, | %7
[M:3/4] x6 |[M:1/4] x2 |[M:4/4] z2 G,2 z4 | x8 | %11
 [D,A,D]>[D,^G,D] [D,D]->[D,=G,D] [D,F,]2 [D,C]>[D,C] | x8 | x8 |[M:9/8] x4[K:bass] x5 | %15
[M:4/4] z2 D,2 z4 | x8 |] %17
V:4
 x8 | x8 | x8 | x8 | x8 | x8 | x8 |[M:3/4] x6 |[M:1/4] x2 |[M:4/4] x8 | F2 z2 z4 | x8 | %12
 z2 G2 G2 z2 | x8 |[M:9/8] x9 |[M:4/4] x8 | x8 |] %17

